X: 219
T: A Ha'penny For A Cotton Ball
R: reel
M: 4/4
K: Gmajor
(GA)|:B2 BA Bc d2|efed ef g2|BcBA GAB(G|1 AG)EF G2 (GA):|2 AG)EF G2 d2||
gfed edBd|gfed e2 (ef)|{a}g(fed) edBA|BGEF G2 (ef)|
{a}gfe(d ed)Bd|gfed e2 (ef)|gbaf gfed|egfa g2 (GA)||

